!!!COM: Palestrina, Giovanni Perluigi da
!!!OPR: Missa Ave Maria (1594)
!!!OMD: Sanctus
!!!OTL: Pleni
**kern	**kern	**kern
*Itenor	*Icalto	*Icant
!Tenor	!Altus	!Cantus
*clefGv2	*clefG2	*clefG2
*k[]	*k[]	*k[]
*A:aeo	*A:aeo	*A:aeo
*M4/2	*M4/2	*M4/2
=29	=29	=29
0r	1f	0r
.	1c	.
=30	=30	=30
0r	4d	1r
.	4e	.
.	4f	.
.	4g	.
.	1a	1cc
=31	=31	=31
0r	1b-	1g
.	2a	4a
.	.	4b
.	2f	4cc
.	.	4dd
=32	=32	=32
0r	2g	1ee
.	2a	.
.	4d	1ff
.	4e	.
.	4f	.
.	4g	.
=33	=33	=33
0r	1a	2ee
.	.	2cc
.	2b	2dd
.	[2cc	2ee
=34	=34	=34
1r	4cc]	4a
.	4b	4b
.	2a	4cc
.	.	4dd
1c	2g	1ee
.	[2cc	.
=35	=35	=35
1G	2cc]	1dd
.	2b	.
4A	1a	2cc
4B	.	.
4c	.	2cc
4d	.	.
=36	=36	=36
1e	2g	2b
.	2.cc	2g
1f	.	4a
.	4b	4b
.	2a	4cc
.	.	4a
=37	=37	=37
2e	2g	2b
2c	2.a	2cc
2d	.	1b
.	8g#	.
.	8f#	.
2e	2g#	.
=38	=38	=38
4A	2.a	1a
4B	.	.
4c	.	.
4d	4f	.
2e	2g	1r
[2f	2a	.
=39	=39	=39
4f]	4d	1r
4e	4e	.
1d	4f	.
.	4d	.
.	1e	2r
4c#	.	[2ee
4B	.	.
=40	=40	=40
2c#	1r	2ee]
2d	.	2dd
1A	[1a	2cc
.	.	4a
.	.	4b
=41	=41	=41
0r	2a]	4cc
.	.	4dd
.	2g	4ee
.	.	8dd
.	.	8cc
.	2f	4dd
.	.	4ee
.	4d	[2ff
.	4e	.
=42	=42	=42
0r	4f	4ff]
.	4g	4ee
.	4a	4cc
.	8g	4dd
.	8f	.
.	4g	2ee
.	4a	.
.	[2b-	2dd
=43	=43	=43
0r	4b-]	1.ff
.	4a	.
.	4f	.
.	4g	.
.	4a	.
.	4b	.
.	2cc	2ee
=44	=44	=44
1r	2b	2dd
.	1a	2cc
[1e	.	[1b
.	4g	.
.	4f	.
=45	=45	=45
2e]	2g	1b]
2d	2f	.
2c	2e	1a
4A	[2a	.
4B	.	.
=46	=46	=46
4c	2a]	0r
4d	.	.
4e	2g	.
8d	.	.
8c	.	.
4d	2f	.
4e	.	.
[2f	4d	.
.	4e	.
=47	=47	=47
4f]	4f	2r
4e	4g	.
4c	4a	1ee
4d	8g	.
.	8f	.
4e	4g	.
4f	4a	.
4g	2b-	2dd
4d	.	.
=48	=48	=48
1.f	2a	2cc
.	4f	4a
.	4g	4b
.	4a	4cc
.	4b	4dd
2c	[2cc	4ee
.	.	4cc
=49	=49	=49
1g	2cc]	1dd
.	2b	.
2r	2cc	2ee
[2e	4b	[2gg
.	4a	.
=50	=50	=50
2e]	2g	2gg]
2d	2a	2ff
2c	2r	2.ee
4A	[2a	.
4B	.	4dd
=51	=51	=51
4c	2a]	2cc
4d	.	.
4e	2g	2b
8d	.	.
8c	.	.
4d	2f	2.a
4e	.	.
[2f	4d	.
.	4e	4g
=52	=52	=52
4f]	4f	4a
8e	4g	4b
8d	.	.
1c	4a	4cc
.	8g	4dd
.	8f	.
.	2g	2ee
2d	2f	[2dd
=53	=53	=53
1A	1e	2dd]
.	.	2cc#
1d	1d	1dd
*-	*-	*-
!!!CDT: 1525/^1526/-1594/2/2
!!!OCY: Italia
!!!AGN: Mass (Paraphrase)
!!!AST: renaissance, vocal
!!!ASW: Prayer
!!!PWK: Masses, Book 7
!!!RNB: Cadence finals: D
!!!YOR: Le Opere Complete, v. 23, p. 1
!!!YOO: Rome, Italy: Fratelli Scalera
!!!END: 1992//
!!!EED: John Miller
!!!YEC: Copyright 2000, John Miller
!!!YEN: United States of America
!!!YEM: Rights to all derivative electronic formats reserved.
!!!YEM: Refer to licensing agreement for further details.
!!!YEM: This file must be accompanied by the licensing agreement.
!!!YEM: A copy of the licensing agreement may be found at http://www.music-cog.ohio-state.edu/HumdrumDatabases/Palestrina/license.txt
!!!EMD: converted to Humdrum by Bret Aarden
